icon/lg/clion.svg

<?xml version="1.0" encoding="UTF-8"?>
<svg viewBox="0 0 256 256" version="1.1" xmlns="http://www.w3.org/2000/svg" preserveAspectRatio="xMidYMid" height="1em" width="1em">
  <defs>
    <linearGradient x1="0%" y1="50%" x2="115.014638%" y2="50%" id="clionLinearGradient-1">
      <stop stop-color="#FF318C" offset="0%"/>
      <stop stop-color="#FB348C" offset="15%"/>
      <stop stop-color="#F03C8C" offset="28%"/>
      <stop stop-color="#DE4A8C" offset="42%"/>
      <stop stop-color="#C45D8B" offset="54%"/>
      <stop stop-color="#A2778B" offset="67%"/>
      <stop stop-color="#79958A" offset="79%"/>
      <stop stop-color="#49B98A" offset="91%"/>
      <stop stop-color="#21D789" offset="100%"/>
    </linearGradient>
    <linearGradient x1="53.8157917%" y1="17.2570133%" x2="43.4444773%" y2="151.487674%" id="clionLinearGradient-2">
      <stop stop-color="#21D789" offset="9%"/>
      <stop stop-color="#009AE5" offset="90%"/>
    </linearGradient>
    <linearGradient x1="93.0492082%" y1="9.9805967%" x2="-9.59719418%" y2="113.191194%" id="clionLinearGradient-3">
      <stop stop-color="#21D789" offset="9%"/>
      <stop stop-color="#009AE5" offset="90%"/>
    </linearGradient>
    <linearGradient x1="32.3877917%" y1="46.0393104%" x2="91.6876122%" y2="52.2443908%" id="clionLinearGradient-4">
      <stop stop-color="#21D789" offset="9%"/>
      <stop stop-color="#009AE5" offset="90%"/>
    </linearGradient>
  </defs>
  <g>
    <polygon fill="url(#clionLinearGradient-1)" points="92.0266667 100.106667 97.5733333 0 155.786667 32.2666667"/>
    <polygon fill="url(#clionLinearGradient-2)" points="92.0266667 100.106667 97.5733333 0 23.6533333 46.5866667 -7.10542736e-15 188.213333"/>
    <polygon fill="url(#clionLinearGradient-3)" points="250.906667 76.72 217.973333 9.76 155.786667 32.2666667 92.0266667 100.106667 1.42108547e-14 188.213333 83.0133333 248.64 187.36 154.533333"/>
    <polygon fill="url(#clionLinearGradient-4)" points="208 146.773333 208 208 107.466667 208 151.653333 242.186667 215.653333 256 256 164.666667"/>
    <polygon fill="#000000" points="48 48 208 48 208 208 48 208"/>
    <path d="M67.9466667,177.76 L127.946667,177.76 L127.946667,187.76 L67.9466667,187.76 L67.9466667,177.76 Z M128.133333,67.84 L141.466667,67.84 L141.466667,116.88 L167.733333,116.88 L167.733333,128 L128.133333,128 L128.133333,67.84 Z M63.6761695,98.8152265 L63.68,98.16 C63.5318962,89.7705158 66.815956,81.6843521 72.7717534,75.7738651 C78.7275508,69.863378 86.8385581,66.6411657 95.2266667,66.8533333 C104.14206,66.4140931 112.819226,69.8111941 119.066667,76.1866667 L110.666667,85.9733333 C106.597509,81.7537466 101.033266,79.302032 95.1733333,79.1466667 C85.0998519,79.1466667 77.8166486,87.4131918 77.6560432,97.6282756 L77.6533333,98.16 C77.6533333,108.533333 84.8266667,117.173333 95.1733333,117.173333 C102.106667,117.173333 106.32,114.506667 111.173333,110.08 L119.493333,118.666667 C113.290313,125.8398 104.13976,129.771295 94.6666667,129.333333 C86.4065506,129.457022 78.4488208,126.228412 72.609895,120.384462 C66.8877476,114.65739 63.6791235,106.89758 63.6761695,98.8152265 L63.6761695,98.8152265 Z" fill="#FFFFFF"/>
  </g>
</svg>

<svg width="256" height="256" xmlns="http://www.w3.org/2000/svg" preserveAspectRatio="xMidYMid"><defs><linearGradient x1="0%" y1="50%" x2="115.015%" y2="50%" id="a"><stop stop-color="#FF318C" offset="0%"/><stop stop-color="#FB348C" offset="15%"/><stop stop-color="#F03C8C" offset="28%"/><stop stop-color="#DE4A8C" offset="42%"/><stop stop-color="#C45D8B" offset="54%"/><stop stop-color="#A2778B" offset="67%"/><stop stop-color="#79958A" offset="79%"/><stop stop-color="#49B98A" offset="91%"/><stop stop-color="#21D789" offset="100%"/></linearGradient><linearGradient x1="53.816%" y1="17.257%" x2="43.444%" y2="151.488%" id="b"><stop stop-color="#21D789" offset="9%"/><stop stop-color="#009AE5" offset="90%"/></linearGradient><linearGradient x1="93.049%" y1="9.981%" x2="-9.597%" y2="113.191%" id="c"><stop stop-color="#21D789" offset="9%"/><stop stop-color="#009AE5" offset="90%"/></linearGradient><linearGradient x1="32.388%" y1="46.039%" x2="91.688%" y2="52.244%" id="d"><stop stop-color="#21D789" offset="9%"/><stop stop-color="#009AE5" offset="90%"/></linearGradient></defs><path fill="url(#a)" d="M92.027 100.107 97.573 0l58.214 32.267z"/><path fill="url(#b)" d="M92.027 100.107 97.573 0l-73.92 46.587L0 188.213z"/><path fill="url(#c)" d="M250.907 76.72 217.973 9.76l-62.186 22.507-63.76 67.84L0 188.213l83.013 60.427 104.347-94.107z"/><path fill="url(#d)" d="M208 146.773V208H107.467l44.186 34.187 64 13.813L256 164.667z"/><path d="M48 48h160v160H48z"/><path d="M67.947 177.76h60v10h-60v-10Zm60.186-109.92h13.334v49.04h26.266V128h-39.6V67.84ZM63.676 98.815l.004-.655a30.773 30.773 0 0 1 31.547-31.307 31.227 31.227 0 0 1 23.84 9.334l-8.4 9.786a22.347 22.347 0 0 0-15.494-6.826c-10.073 0-17.356 8.266-17.517 18.481l-.003.532c0 10.373 7.174 19.013 17.52 19.013 6.934 0 11.147-2.666 16-7.093l8.32 8.587a30.933 30.933 0 0 1-24.826 10.666 30.533 30.533 0 0 1-30.99-30.518Z" fill="#FFF"/></svg>
